curriculum/images/exercise-icons/alien-detector.svg

<svg width="82" height="82" viewBox="0 0 82 82" fill="none" xmlns="http://www.w3.org/2000/svg">
<path d="M41 81C63.0914 81 81 63.0914 81 41C81 18.9086 63.0914 1 41 1C18.9086 1 1 18.9086 1 41C1 63.0914 18.9086 81 41 81Z" fill="#DAEDF7" stroke="#DAEDF7" stroke-miterlimit="10"/>
<path opacity="0.15" d="M34.2 74.896C42.5456 74.896 49.311 74.0678 49.311 73.046C49.311 72.0243 42.5456 71.196 34.2 71.196C25.8544 71.196 19.089 72.0243 19.089 73.046C19.089 74.0678 25.8544 74.896 34.2 74.896Z" fill="#45413C"/>
<path d="M14.7 61.382C14.6999 61.5554 14.7339 61.7272 14.8002 61.8874C14.8665 62.0477 14.9637 62.1933 15.0863 62.316C15.2089 62.4387 15.3544 62.536 15.5146 62.6024C15.6748 62.6688 15.8466 62.703 16.02 62.703H54.32C54.6704 62.703 55.0064 62.5638 55.2541 62.3161C55.5018 62.0683 55.641 61.7323 55.641 61.382V18.457L44.418 7.23001H16.018C15.6678 7.23021 15.3321 7.36951 15.0846 7.61721C14.837 7.86501 14.698 8.20081 14.698 8.55101L14.7 61.382Z" fill="white" stroke="#45413C" stroke-linecap="round" stroke-linejoin="round"/>
<path d="M55.645 18.457H45.651C45.3243 18.4559 45.0113 18.3257 44.7803 18.0947C44.5493 17.8637 44.419 17.5507 44.418 17.224V7.23001L55.645 18.457Z" fill="white" stroke="#45413C" stroke-linecap="round" stroke-linejoin="round"/>
<path d="M79.255 23.0879C79.597 23.4558 79.8629 23.8877 80.0372 24.3589C80.2116 24.83 80.291 25.3309 80.2709 25.8328C80.2509 26.3348 80.1317 26.8278 79.9202 27.2835C79.7088 27.7391 79.4093 28.1485 79.039 28.4879L50.939 54.4239H50.922L45.751 48.8239V48.8069L73.851 22.8699C74.219 22.5272 74.6513 22.2609 75.1229 22.0863C75.5945 21.9117 76.096 21.8322 76.5984 21.8525C77.1009 21.8727 77.5943 21.9923 78.0503 22.2044C78.5063 22.4164 78.9157 22.7167 79.255 23.0879Z" fill="#00B8F0"/>
<path d="M79.3 23.148C79.282 23.129 79.271 23.107 79.254 23.088C78.9146 22.7175 78.5053 22.4179 78.0496 22.2064C77.594 21.9949 77.1009 21.8757 76.599 21.8556C76.097 21.8355 75.596 21.915 75.1249 22.0894C74.6538 22.2639 74.2218 22.5298 73.854 22.872L45.756 48.809V48.826L48.393 51.682L79.3 23.148Z" fill="#4ACFFF"/>
<path d="M66.829 29.355L72.016 34.975" stroke="#45413C" stroke-linecap="round" stroke-linejoin="round"/>
<path d="M60.074 29.0848L64.991 24.5448C65.4522 24.119 65.9928 23.7881 66.582 23.5712C67.1711 23.3543 67.7971 23.2556 68.4244 23.2807C69.0517 23.3057 69.6679 23.4541 70.2378 23.7174C70.8077 23.9806 71.3202 24.3535 71.746 24.8148" stroke="#45413C" stroke-linecap="round" stroke-linejoin="round"/>
<path d="M50.926 54.4269L43.906 56.4699C43.254 56.6589 42.919 56.2949 43.159 55.6609L45.759 48.8259L50.926 54.4269Z" fill="#DAEDF7" stroke="#45413C" stroke-linecap="round" stroke-linejoin="round"/>
<path d="M79.255 23.0879C79.597 23.4558 79.8629 23.8877 80.0372 24.3589C80.2116 24.83 80.291 25.3309 80.2709 25.8328C80.2509 26.3348 80.1317 26.8278 79.9202 27.2835C79.7088 27.7391 79.4093 28.1485 79.039 28.4879L50.939 54.4239H50.922L45.751 48.8239V48.8069L73.851 22.8699C74.219 22.5272 74.6513 22.2609 75.1229 22.0863C75.5945 21.9117 76.096 21.8322 76.5984 21.8525C77.1009 21.8727 77.5943 21.9923 78.0503 22.2044C78.5063 22.4164 78.9157 22.7167 79.255 23.0879Z" stroke="#45413C" stroke-linecap="round" stroke-linejoin="round"/>
<path d="M21.224 34.698L22.9 36.287L27.352 30.915" stroke="#46B000" stroke-linecap="round" stroke-linejoin="round"/>
<path d="M42.9169 19.7708V17.6042H41.8339V16.5208H40.75V15.9792H41.8339V14.3542H40.2089V15.4373H39.125V16.5208H35.875V15.4373H34.7919V14.3542H33.1669V15.9792H34.25V16.5208H33.1669V17.6042H32.0839V19.7708H31V23.5623H32.625V21.3958H33.1669V23.5623H34.25V24.6458H36.9589V23.0208H34.7919V22.4792H40.2089V23.0208H38.0419V24.6458H40.75V23.5623H41.8339V21.3958H42.375V23.5623H44V19.7708H42.9169ZM35.875 19.2292H34.25V17.6042H35.875V19.2292ZM40.75 19.2292H39.125V17.6042H40.75V19.2292Z" fill="#7029F5"/>
<path d="M42.9169 33.7708V31.6042H41.8339V30.5208H40.75V29.9792H41.8339V28.3542H40.2089V29.4373H39.125V30.5208H35.875V29.4373H34.7919V28.3542H33.1669V29.9792H34.25V30.5208H33.1669V31.6042H32.0839V33.7708H31V37.5623H32.625V35.3958H33.1669V37.5623H34.25V38.6458H36.9589V37.0208H34.7919V36.4792H40.2089V37.0208H38.0419V38.6458H40.75V37.5623H41.8339V35.3958H42.375V37.5623H44V33.7708H42.9169ZM35.875 33.2292H34.25V31.6042H35.875V33.2292ZM40.75 33.2292H39.125V31.6042H40.75V33.2292Z" fill="#7029F5"/>
<path d="M42.9169 46.7708V44.6042H41.8339V43.5208H40.75V42.9792H41.8339V41.3542H40.2089V42.4373H39.125V43.5208H35.875V42.4373H34.7919V41.3542H33.1669V42.9792H34.25V43.5208H33.1669V44.6042H32.0839V46.7708H31V50.5623H32.625V48.3958H33.1669V50.5623H34.25V51.6458H36.9589V50.0208H34.7919V49.4792H40.2089V50.0208H38.0419V51.6458H40.75V50.5623H41.8339V48.3958H42.375V50.5623H44V46.7708H42.9169ZM35.875 46.2292H34.25V44.6042H35.875V46.2292ZM40.75 46.2292H39.125V44.6042H40.75V46.2292Z" fill="#7029F5"/>
<path d="M21.224 22.031L22.9 23.62L27.352 18.248" stroke="#46B000" stroke-linecap="round" stroke-linejoin="round"/>
<path d="M21.224 47.72L22.9 49.309L27.352 43.937" stroke="#46B000" stroke-linecap="round" stroke-linejoin="round"/>
</svg>

<svg xmlns="http://www.w3.org/2000/svg" width="82" height="82" fill="none" viewBox="0 0 82 82"><path fill="#daedf7" stroke="#daedf7" stroke-miterlimit="10" d="M41 81c22.091 0 40-17.909 40-40S63.091 1 41 1 1 18.909 1 41s17.909 40 40 40Z"/><path fill="#45413c" d="M34.2 74.896c8.346 0 15.111-.828 15.111-1.85s-6.765-1.85-15.111-1.85-15.111.828-15.111 1.85 6.765 1.85 15.111 1.85" opacity=".15"/><path fill="#fff" stroke="#45413c" stroke-linecap="round" stroke-linejoin="round" d="M14.7 61.382a1.32 1.32 0 0 0 1.32 1.321h38.3a1.32 1.32 0 0 0 1.321-1.321V18.457L44.418 7.23h-28.4a1.32 1.32 0 0 0-1.32 1.321z"/><path fill="#fff" stroke="#45413c" stroke-linecap="round" stroke-linejoin="round" d="M55.645 18.457h-9.994a1.237 1.237 0 0 1-1.233-1.233V7.23z"/><path fill="#00b8f0" d="M79.255 23.088a3.806 3.806 0 0 1-.216 5.4l-28.1 25.936h-.017l-5.171-5.6v-.017l28.1-25.937a3.804 3.804 0 0 1 5.404.218"/><path fill="#4acfff" d="M79.3 23.148c-.018-.019-.029-.041-.046-.06a3.807 3.807 0 0 0-5.4-.216L45.756 48.809v.017l2.637 2.856z"/><path stroke="#45413c" stroke-linecap="round" stroke-linejoin="round" d="m66.829 29.355 5.187 5.62M60.074 29.085l4.917-4.54a4.78 4.78 0 0 1 6.755.27"/><path fill="#daedf7" stroke="#45413c" stroke-linecap="round" stroke-linejoin="round" d="m50.926 54.427-7.02 2.043c-.652.189-.987-.175-.747-.81l2.6-6.834z"/><path stroke="#45413c" stroke-linecap="round" stroke-linejoin="round" d="M79.255 23.088a3.806 3.806 0 0 1-.216 5.4l-28.1 25.936h-.017l-5.171-5.6v-.017l28.1-25.937a3.804 3.804 0 0 1 5.404.218"/><path stroke="#46b000" stroke-linecap="round" stroke-linejoin="round" d="m21.224 34.698 1.676 1.589 4.452-5.372"/><path fill="#7029f5" d="M42.917 19.77v-2.166h-1.083v-1.083H40.75v-.542h1.084v-1.625h-1.625v1.083h-1.084v1.084h-3.25v-1.084h-1.083v-1.083h-1.625v1.625h1.083v.542h-1.083v1.083h-1.083v2.167H31v3.791h1.625v-2.166h.542v2.166h1.083v1.084h2.709V23.02h-2.167v-.542h5.417v.542h-2.167v1.625h2.708v-1.084h1.084v-2.166h.541v2.166H44v-3.791zm-7.042-.54H34.25v-1.626h1.625zm4.875 0h-1.625v-1.626h1.625zM42.917 33.77v-2.166h-1.083v-1.083H40.75v-.542h1.084v-1.625h-1.625v1.083h-1.084v1.084h-3.25v-1.084h-1.083v-1.083h-1.625v1.625h1.083v.542h-1.083v1.083h-1.083v2.167H31v3.791h1.625v-2.166h.542v2.166h1.083v1.084h2.709V37.02h-2.167v-.542h5.417v.542h-2.167v1.625h2.708v-1.084h1.084v-2.166h.541v2.166H44v-3.791zm-7.042-.54H34.25v-1.626h1.625zm4.875 0h-1.625v-1.626h1.625zM42.917 46.77v-2.166h-1.083v-1.083H40.75v-.542h1.084v-1.625h-1.625v1.083h-1.084v1.084h-3.25v-1.084h-1.083v-1.083h-1.625v1.625h1.083v.542h-1.083v1.083h-1.083v2.167H31v3.791h1.625v-2.166h.542v2.166h1.083v1.084h2.709V50.02h-2.167v-.542h5.417v.542h-2.167v1.625h2.708v-1.084h1.084v-2.166h.541v2.166H44v-3.791zm-7.042-.54H34.25v-1.626h1.625zm4.875 0h-1.625v-1.626h1.625z"/><path stroke="#46b000" stroke-linecap="round" stroke-linejoin="round" d="M21.224 22.031 22.9 23.62l4.452-5.372M21.224 47.72l1.676 1.589 4.452-5.372"/></svg>
